X:1
T:Gloria Patri (Greatorex)
T:Gloria Patri (Greatorex)
T:Henry Wellington Greatorex, 1851
T:Public Domain Courtesy of the Cyber Hymnal™
C:Henry Wellington Greatorex, 1851
Z:Public Domain
Z:Courtesy of the Cyber Hymnal™
%%score ( 1 2 ) ( 3 4 )
L:1/8
Q:1/4=110
M:4/4
K:Eb
V:1 treble 
V:2 treble 
V:3 bass 
V:4 bass 
V:1
 [B,E]3 [B,E] [B,E]2 [B,E][B,E] | [B,E]2 [B,D]4 [B,E]2 | [B,F]4 [DB]4 | [EB]2 [GB]2 [FB]2 [Gc]2 | %4
 [Fd]4 c4 | [DB]6 [DB][DB] | [EB]2 [EG]2 [Ec]2 [EB]2 | [DB]2 [DA]4 [DA]2 | %8
 [DA]2 [DF]2 [DB]2 [FA]2 | [FA]2 [EG]4 z2 | [Fd]4 [Gd]2 [Fd]2 | [Ee]4 [B,E]2 [CF]2 | %12
 !fermata![B,G]4 G2 F2 | E8 |] %14
V:2
 x8 | x8 | x8 | x8 | x4 F2 E2 | x8 | x8 | x8 | x8 | x8 | x8 | x8 | x4 D4 | E8 |] %14
V:3
 [E,G,]3 [E,G,] [E,G,]2 [E,G,][E,G,] | [F,A,]2 [F,A,]4 [E,G,]2 | [D,F,]4 [B,,F,]4 | %3
 [E,G,]2 [E,B,]2 [D,B,]2 [E,B,]2 | [F,B,]4 [F,=A,]4 | [B,,B,]6 [B,,B,][B,,A,] | %6
 [E,G,]2 E,2 [E,A,]2 [E,G,]2 | [B,,F,]2 [B,,F,]4 [B,,F,]2 | [B,,F,]2 [B,,B,]2 [B,,F,]2 [B,,B,]2 | %9
 [E,B,]2 [E,B,]4 z2 | [A,B,]4 [A,B,]2 [A,B,]2 | [G,B,]4 E,4 | !fermata![B,,E,]4 [B,,A,]4 | %13
 [E,G,]8 |] %14
V:4
 x8 | x8 | x8 | x8 | x8 | x8 | x2 E,2 x4 | x8 | x8 | x8 | x8 | x4 G,,2 A,,2 | x8 | x8 |] %14

